src/icons/html.svg

<?xml version="1.0" encoding="UTF-8"?>
<svg xmlns="http://www.w3.org/2000/svg" xmlns:xlink="http://www.w3.org/1999/xlink" width="29.333333" height="32" viewBox="0 0 29.333333 32" version="1.1">
<g id="surface1">
<path style=" stroke:none;fill-rule:evenodd;fill:rgb(89.411765%,30.19608%,14.901961%);fill-opacity:1;" d="M 28.445312 0 L 0 0 L 2.371094 27.257812 L 14.222656 30.816406 L 26.074219 27.257812 L 28.445312 0 "/>
<path style=" stroke:none;fill-rule:evenodd;fill:rgb(92.156863%,92.156863%,92.156863%);fill-opacity:1;" d="M 10.601562 23.804688 L 6.707031 22.636719 L 6.390625 18.984375 L 6.285156 17.777344 L 10.078125 17.777344 L 10.285156 20.152344 L 14.222656 21.332031 L 14.222656 24.890625 Z M 14.222656 8.296875 L 9.253906 8.296875 L 9.5625 11.851562 L 14.222656 11.851562 L 14.222656 15.40625 L 6.082031 15.40625 L 5.769531 11.851562 L 5.152344 4.742188 L 14.222656 4.742188 Z M 14.222656 8.296875 "/>
<path style=" stroke:none;fill-rule:evenodd;fill:rgb(94.509804%,39.607844%,16.078432%);fill-opacity:1;" d="M 24.527344 17.777344 L 24.734375 15.40625 L 25.660156 4.742188 L 25.867188 2.371094 L 14.222656 2.371094 L 14.222656 28.445312 L 21.417969 26.285156 L 23.851562 25.554688 L 24.167969 21.90625 L 24.488281 18.253906 Z M 24.527344 17.777344 "/>
<path style=" stroke:none;fill-rule:evenodd;fill:rgb(100%,100%,100%);fill-opacity:1;" d="M 14.222656 8.296875 L 22.980469 8.296875 L 23.292969 4.742188 L 14.222656 4.742188 Z M 18.570312 15.40625 L 14.222656 15.40625 L 14.222656 11.851562 L 22.671875 11.851562 L 22.363281 15.40625 L 22.15625 17.777344 L 22.054688 18.984375 L 21.734375 22.636719 L 17.839844 23.804688 L 14.222656 24.890625 L 14.222656 21.332031 L 18.160156 20.152344 L 18.367188 17.777344 Z M 18.570312 15.40625 "/>
</g>
</svg>

<svg role="img" viewBox="0 0 29.333 32" xmlns="http://www.w3.org/2000/svg"><path d="M28.445 0H0l2.371 27.258 11.852 3.558 11.851-3.558z" style="stroke:none;fill-rule:evenodd;fill:rgb(89.411765%,30.19608%,14.901961%);fill-opacity:1"/><path d="m10.602 23.805-3.895-1.168-.316-3.653-.106-1.207h3.793l.207 2.375 3.938 1.18v3.559Zm3.62-15.508H9.255l.309 3.555h4.66v3.554H6.082l-.312-3.554-.618-7.11h9.07Zm0 0" style="stroke:none;fill-rule:evenodd;fill:rgb(92.156863%,92.156863%,92.156863%);fill-opacity:1"/><path d="m24.527 17.777.207-2.37.926-10.665.207-2.37H14.223v26.073l7.195-2.16 2.434-.73.316-3.649.32-3.652Zm0 0" style="stroke:none;fill-rule:evenodd;fill:rgb(94.509804%,39.607844%,16.078432%);fill-opacity:1"/><path d="M14.223 8.297h8.757l.313-3.555h-9.07Zm4.347 7.11h-4.347v-3.555h8.449l-.309 3.554-.207 2.371-.101 1.207-.32 3.653-3.895 1.168-3.617 1.086v-3.559l3.937-1.18.207-2.375Zm0 0" style="stroke:none;fill-rule:evenodd;fill:rgb(100%,100%,100%);fill-opacity:1"/></svg>
